common/svg/error-icon.svg

<svg fill="none" height="20" viewBox="0 0 20 20" width="20" xmlns="http://www.w3.org/2000/svg"><path clip-rule="evenodd" d="m4.16667 1.66669c-1.38071 0-2.5 1.11928-2.5 2.5v11.66671c0 1.3807 1.11929 2.5 2.5 2.5h11.66663c1.3807 0 2.5-1.1193 2.5-2.5v-11.66671c0-1.38071-1.1192-2.5-2.5-2.5zm3.08918 4.41066c-.32544-.32544-.85308-.32544-1.17852 0-.32543.32543-.32543.85307 0 1.17851l2.74408 2.74408-2.74407 2.74406c-.32544.3255-.32544.8531 0 1.1785.32543.3255.85307.3255 1.17851 0l2.74407-2.7441 2.74408 2.7441c.3254.3255.8531.3255 1.1785 0 .3255-.3254.3255-.853 0-1.1785l-2.7441-2.74406 2.7441-2.74408c.3255-.32544.3255-.85308 0-1.17851-.3254-.32544-.8531-.32544-1.1785 0l-2.74408 2.74408z" fill="#000" fill-rule="evenodd"/></svg>

<svg width="20" height="20" viewBox="0 0 20 20" fill="none" xmlns="http://www.w3.org/2000/svg">
<path fill-rule="evenodd" clip-rule="evenodd" d="M4.16667 1.66669C2.78596 1.66669 1.66667 2.78597 1.66667 4.16669V15.8334C1.66667 17.2141 2.78596 18.3334 4.16667 18.3334H15.8333C17.214 18.3334 18.3333 17.2141 18.3333 15.8334V4.16669C18.3333 2.78598 17.2141 1.66669 15.8333 1.66669H4.16667ZM7.25585 6.07735C6.93041 5.75191 6.40277 5.75191 6.07733 6.07735C5.7519 6.40278 5.7519 6.93042 6.07733 7.25586L8.82141 9.99994L6.07734 12.744C5.7519 13.0695 5.7519 13.5971 6.07734 13.9225C6.40277 14.248 6.93041 14.248 7.25585 13.9225L9.99992 11.1784L12.744 13.9225C13.0694 14.248 13.5971 14.248 13.9225 13.9225C14.248 13.5971 14.248 13.0695 13.9225 12.744L11.1784 9.99994L13.9225 7.25586C14.248 6.93042 14.248 6.40278 13.9225 6.07735C13.5971 5.75191 13.0694 5.75191 12.744 6.07735L9.99992 8.82143L7.25585 6.07735Z" fill="black"/>
</svg>
